X:295
T: Shanli laobiao changxinge
N: C1792
O: China, Jiangxi Duchang
S: IV, 201]
R: Shange, Tiange]
M: 2/4
L: 1/16
K: C
g2ege2g2 | c2cAd4
g2ege2g2 | c2cAG4
g2ege2g2 | c2cAd2d2
g2A2c2c2 | c2cAG4
A2A2G4 | AAA2G4
A2AAG4
g2deg2de | cc2AG4
A2A2G4
g2e2eeeg | c2Acd4
c2Acd2d2 | A2A2G4
A4A4 | G8

